X:232
T:Soft Horse Reel
T:The Soft Horse Reel
C:Phil Cunningham
R:reel
M:4/4
L:1/8
K:D
D2 AD FEDF| Eeed edBc| dB (3cBA BdAF| GE (3FED B,DA,B,|
D2 AD FEDF| Eeed edBc| dB (3cBA BdAF| GFEF D4 ::
BF (3FFF Bcdc| BG (3GGG BcdB| cA (3AAA cdeA| ^GBed cA=GE|
D2 AD FEDF| Eeed edBc| dB (3cBA BdAF|1 GFEF D2 FA :|2 GFEF D4 ||
